X: 05030
T: GARY'S REEL
C: Bob McQuillen 3 Oct'80
B: Bob's Note Book 5 #30
%R: reel
Z: 2021 John Chambers <jc:trillian.mit.edu>
M: C
L: 1/8
K: D
AG \
| FDFA GBAG | FAde fafd | ABAF DFAd | fbaf e2AG |\
| FDFA GBAG | FAde faba | gfed fedc | d2D2 D2 :|
|: FG \
| AFAd fabf | abaf a2FG | AFAd fbaf | efgf e2dc |\
| Bdcd Adfd | Bdcd ABAF | ABdf gecd | e2d2 d2 :|
%%begintext align
%% This tune is for Gary
%% Heald of Troy, N.H. - I susppose there's been a
%% dance somewhere in the Monadnock Region that
%% Gary missed, but I sure don't remember when!!
%%endtext

%%sep 1 1 500

%%sep 1 1 500

